OBS Studio/Fluent Dark Grey/minus.svg

<svg viewBox="64 448 832 64" xmlns="http://www.w3.org/2000/svg"><path d="m96 512c-8.6667 0-16.167-3.167-22.5-9.5s-9.5-13.833-9.5-22.5 3.1667-16.167 9.5-22.5 13.833-9.5 22.5-9.5h768c8.667 0 16.167 3.167 22.5 9.5s9.5 13.833 9.5 22.5-3.167 16.167-9.5 22.5-13.833 9.5-22.5 9.5z" fill="#fff"></path></svg>

<!-- Exported by Character Map UWP -->
<svg height="100%" viewBox="64 448 832 64" width="100%" xmlns="http://www.w3.org/2000/svg" xmlns:xlink="http://www.w3.org/1999/xlink">
  <path d="M96,512C87.3333,512 79.8333,508.833 73.5,502.5C67.1667,496.167 64,488.667 64,480C64,471.333 67.1667,463.833 73.5,457.5C79.8333,451.167 87.3333,448 96,448L864,448C872.667,448 880.167,451.167 886.5,457.5C892.833,463.833 896,471.333 896,480C896,488.667 892.833,496.167 886.5,502.5C880.167,508.833 872.667,512 864,512Z" fill="#FFFFFF" fill-opacity="1">
  </path>
</svg>
